src/assets/images/components/page/PageEntice/hosted-by-prose.svg

<svg fill="none" height="280" viewBox="0 0 516 280" width="516" xmlns="http://www.w3.org/2000/svg" xmlns:xlink="http://www.w3.org/1999/xlink"><filter id="a" color-interpolation-filters="sRGB" filterUnits="userSpaceOnUse" height="289" width="285" x="142" y="34"><feFlood flood-opacity="0" result="BackgroundImageFix"/><feColorMatrix in="SourceAlpha" result="hardAlpha" type="matrix" values="0 0 0 0 0 0 0 0 0 0 0 0 0 0 0 0 0 0 127 0"/><feOffset dy="11"/><feGaussianBlur stdDeviation="16"/><feComposite in2="hardAlpha" operator="out"/><feColorMatrix type="matrix" values="0 0 0 0 0.0941176 0 0 0 0 0.101961 0 0 0 0 0.105882 0 0 0 0.14 0"/><feBlend in2="BackgroundImageFix" mode="normal" result="effect1_dropShadow_83_430"/><feBlend in="SourceGraphic" in2="effect1_dropShadow_83_430" mode="normal" result="shape"/></filter><filter id="b" color-interpolation-filters="sRGB" filterUnits="userSpaceOnUse" height="89" width="85" x="242" y="95"><feFlood flood-opacity="0" result="BackgroundImageFix"/><feBlend in="SourceGraphic" in2="BackgroundImageFix" mode="normal" result="shape"/><feColorMatrix in="SourceAlpha" result="hardAlpha" type="matrix" values="0 0 0 0 0 0 0 0 0 0 0 0 0 0 0 0 0 0 127 0"/><feOffset dy="2"/><feGaussianBlur stdDeviation="2"/><feComposite in2="hardAlpha" k2="-1" k3="1" operator="arithmetic"/><feColorMatrix type="matrix" values="0 0 0 0 1 0 0 0 0 1 0 0 0 0 1 0 0 0 0.25 0"/><feBlend in2="shape" mode="normal" result="effect1_innerShadow_83_430"/><feColorMatrix in="SourceAlpha" result="hardAlpha" type="matrix" values="0 0 0 0 0 0 0 0 0 0 0 0 0 0 0 0 0 0 127 0"/><feOffset dy="-4"/><feGaussianBlur stdDeviation="1"/><feComposite in2="hardAlpha" k2="-1" k3="1" operator="arithmetic"/><feColorMatrix type="matrix" values="0 0 0 0 0 0 0 0 0 0 0 0 0 0 0 0 0 0 0.1 0"/><feBlend in2="effect1_innerShadow_83_430" mode="multiply" result="effect2_innerShadow_83_430"/></filter><filter id="c" color-interpolation-filters="sRGB" filterUnits="userSpaceOnUse" height="59.8796" width="52.0391" x="258.477" y="112.712"><feFlood flood-opacity="0" result="BackgroundImageFix"/><feColorMatrix in="SourceAlpha" result="hardAlpha" type="matrix" values="0 0 0 0 0 0 0 0 0 0 0 0 0 0 0 0 0 0 127 0"/><feOffset dy="4"/><feGaussianBlur stdDeviation="2"/><feComposite in2="hardAlpha" operator="out"/><feColorMatrix type="matrix" values="0 0 0 0 0 0 0 0 0 0 0 0 0 0 0 0 0 0 0.15 0"/><feBlend in2="BackgroundImageFix" mode="normal" result="effect1_dropShadow_83_430"/><feBlend in="SourceGraphic" in2="effect1_dropShadow_83_430" mode="normal" result="shape"/></filter><linearGradient id="d" gradientUnits="userSpaceOnUse" x1="746" x2="746" y1="523.5" y2="280"><stop offset=".517777" stop-color="#f6f7fb"/><stop offset="1" stop-color="#f6f7fb" stop-opacity="0"/></linearGradient><radialGradient id="e" cx="0" cy="0" gradientTransform="matrix(-77.50106898 -112.4995539 112.4995539 -77.50106898 327 198)" gradientUnits="userSpaceOnUse" r="1"><stop offset="0" stop-color="#1e2d86"/><stop offset="1" stop-color="#4b5cc5"/></radialGradient><clipPath id="f"><path d="m0 0h516v248c0 17.673-14.327 32-32 32h-452c-17.6731 0-32-14.327-32-32z"/></clipPath><mask id="g" height="280" maskUnits="userSpaceOnUse" width="518" x="-1" y="0"><path d="m517 280h518v280h-518z" fill="url(#d)" transform="matrix(-1 0 0 -1 1034 560)"/></mask><g clip-path="url(#f)"><g mask="url(#g)"><path d="m48 9.05662c0-5.00183 4.0548-9.05662 9.0566-9.05662h459.9434v280h-469z" fill="#fff"/><path d="m57.0566.566038h459.3774v278.867962h-467.868v-270.37738c0-4.68922 3.8014-8.490582 8.4906-8.490582z" stroke="#81899b" stroke-opacity=".1" stroke-width="1.13208"/><g filter="url(#a)"><path d="m174 71c0-8.8366 7.163-16 16-16h189c8.837 0 16 7.1634 16 16v209h-221z" fill="#fff"/><path d="m190 55.566h189c8.524 0 15.434 6.9101 15.434 15.434v208.434h-219.868v-208.434c0-8.5239 6.91-15.434 15.434-15.434z" stroke="#81899b" stroke-opacity=".1" stroke-width="1.13208"/></g><g fill="#f0f2f7"><circle cx="78" cy="27" r="7"/><circle cx="102" cy="27" r="7"/><circle cx="126" cy="27" r="7"/></g><g filter="url(#b)"><rect fill="url(#e)" height="85" rx="20" width="85" x="242" y="97"/></g><g filter="url(#c)"><path clip-rule="evenodd" d="m266.887 124.87 21.69-9.032c.334-.138.701-.104.967.033.269.138.269.271.269.28v6.58c-.002.038-.002.078-.002.117v10.885c-.033.571-.445 1.248-1.368 1.629l-.004.002-9.26 3.855v-.002l-6.637 2.765-4.574 1.904.008.021c-.833.434-1.509 1.042-1.978 1.763-.32-.805-.484-1.644-.484-2.485v-16.611c0-.585.406-1.304 1.37-1.703zm25.963-8.719v3.51c.973-.133 2.06.082 2.942.813l.002.002 5.619 4.678 1.164.97c2.478 2.063 3.939 4.931 3.939 7.991v16.615c0 2.043-1.374 3.735-3.245 4.509l-.002.001-21.688 9.031-.002.001c-1.2.498-2.501.387-3.52-.138-1.015-.522-1.916-1.564-1.916-2.981v-3.514c-.974.133-2.062-.081-2.945-.813l-6.203-5.165c-.035-.029-.068-.058-.102-.087l-.478-.398c-2.478-2.063-3.938-4.931-3.938-7.991v-16.611c0-2.044 1.374-3.735 3.245-4.509l.001-.001 21.69-9.031c1.201-.499 2.501-.387 3.52.137 1.016.522 1.917 1.564 1.917 2.981zm8.165 17.241.01.026-20.472 8.522-.003.002c-.964.398-1.37 1.117-1.37 1.703v17.508c0 .009 0 .142.269.28.265.137.633.171.966.033l21.69-9.032.004-.001c.963-.399 1.37-1.118 1.37-1.703v-16.615c0-.842-.164-1.682-.486-2.487-.469.722-1.145 1.33-1.978 1.764zm-8.165-10.538v10.672l6.536-2.723h.001c.821-.341 1.188-.9 1.279-1.364.086-.444-.04-.988-.614-1.466l-6.199-5.161-.001-.001c-.173-.142-.47-.202-.765-.1-.137.047-.209.109-.234.139zm-23.328 26.959.001-.002-.652-.543c-.517-.463-.63-.981-.547-1.407.091-.464.458-1.023 1.279-1.365l4.121-1.716 2.418-1.007v10.671l-.005.006c-.025.03-.098.092-.234.139-.295.102-.592.042-.765-.1l-.001-.001z" fill="#fff" fill-rule="evenodd"/></g><rect fill="#f6f7fb" height="48" rx="4" width="134" x="218" y="198"/><path d="m239.21 229h2.794v-12.564h-2.794zm8.951 0h2.793v-7.527l5.873 7.527h2.046v-12.564h-2.793v7.635l-5.962-7.635h-1.957zm20.404.196c3.025 0 4.822-1.442 4.822-3.844 0-4.573-5.89-3.488-5.89-5.677 0-.694.587-1.067 1.584-1.067.961 0 1.708.373 2.456 1.156l1.815-1.797c-.943-1.05-2.456-1.726-4.218-1.726-2.598 0-4.413 1.388-4.413 3.701 0 4.413 5.89 3.292 5.89 5.659 0 .747-.694 1.21-1.868 1.21-1.317 0-2.26-.516-3.061-1.459l-1.815 1.797c1.228 1.388 2.634 2.047 4.698 2.047zm12.948-.196h2.794v-10.126h3.933v-2.438h-10.659v2.438h3.932zm9.534 0h2.901l.837-2.278h4.911l.836 2.278h2.954l-4.929-12.564h-2.527zm4.574-4.556 1.637-4.484 1.619 4.484zm12.932 4.556h8.364v-2.456h-5.57v-10.108h-2.794zm13.712 0h8.364v-2.456h-5.57v-10.108h-2.794z" fill="#4d5982"/></g></g></svg>

<svg width="516" height="280" viewBox="0 0 516 280" fill="none" xmlns="http://www.w3.org/2000/svg">
<g clip-path="url(#clip0_83_430)">
<mask id="mask0_83_430" style="mask-type:alpha" maskUnits="userSpaceOnUse" x="-1" y="0" width="518" height="280">
<rect x="517" y="280" width="518" height="280" transform="rotate(-180 517 280)" fill="url(#paint0_linear_83_430)"/>
</mask>
<g mask="url(#mask0_83_430)">
<path d="M48 9.05662C48 4.05479 52.0548 0 57.0566 0H517V280H48V9.05662Z" fill="white"/>
<path d="M57.0566 0.566038H516.434V279.434H48.566V9.05662C48.566 4.3674 52.3674 0.566038 57.0566 0.566038Z" stroke="#81899B" stroke-opacity="0.1" stroke-width="1.13208"/>
<g filter="url(#filter0_d_83_430)">
<path d="M174 71C174 62.1634 181.163 55 190 55H379C387.837 55 395 62.1634 395 71V280H174V71Z" fill="white"/>
<path d="M190 55.566H379C387.524 55.566 394.434 62.4761 394.434 71V279.434H174.566V71C174.566 62.4761 181.476 55.566 190 55.566Z" stroke="#81899B" stroke-opacity="0.1" stroke-width="1.13208"/>
</g>
<circle cx="78" cy="27" r="7" fill="#F0F2F7"/>
<circle cx="102" cy="27" r="7" fill="#F0F2F7"/>
<circle cx="126" cy="27" r="7" fill="#F0F2F7"/>
<g filter="url(#filter1_ii_83_430)">
<rect x="242" y="97" width="85" height="85" rx="20" fill="url(#paint1_radial_83_430)"/>
</g>
<g filter="url(#filter2_d_83_430)">
<path fill-rule="evenodd" clip-rule="evenodd" d="M266.887 124.87L288.577 115.838C288.911 115.7 289.278 115.734 289.544 115.871C289.813 116.009 289.813 116.142 289.813 116.151V122.731C289.811 122.769 289.811 122.809 289.811 122.848V133.733C289.778 134.304 289.366 134.981 288.443 135.362L288.439 135.364L279.179 139.219V139.217L272.542 141.982L267.968 143.886L267.976 143.907C267.143 144.341 266.467 144.949 265.998 145.67C265.678 144.865 265.514 144.026 265.514 143.185V126.574C265.514 125.989 265.92 125.27 266.884 124.871L266.887 124.87ZM292.85 116.151V119.661C293.823 119.528 294.91 119.743 295.792 120.474L295.794 120.476L301.413 125.154L301.413 125.154L302.577 126.124C305.055 128.187 306.516 131.055 306.516 134.115V150.73C306.516 152.773 305.142 154.465 303.271 155.239L303.269 155.24L281.581 164.271L281.579 164.272C280.379 164.77 279.078 164.659 278.059 164.134C277.044 163.612 276.143 162.57 276.143 161.153V157.639C275.169 157.772 274.081 157.558 273.198 156.826L266.995 151.661C266.96 151.632 266.927 151.603 266.893 151.574L266.415 151.176C263.937 149.113 262.477 146.245 262.477 143.185V126.574C262.477 124.53 263.851 122.839 265.722 122.065L265.723 122.064L287.413 113.033C288.614 112.534 289.914 112.646 290.933 113.17C291.949 113.692 292.85 114.734 292.85 116.151ZM301.015 133.392L301.025 133.418L280.553 141.94L280.55 141.942C279.586 142.34 279.18 143.059 279.18 143.645V161.153C279.18 161.162 279.18 161.295 279.449 161.433C279.714 161.57 280.082 161.604 280.415 161.466L280.415 161.466L302.105 152.434L302.109 152.433C303.072 152.034 303.479 151.315 303.479 150.73V134.115C303.479 133.273 303.315 132.433 302.993 131.628C302.524 132.35 301.848 132.958 301.015 133.392ZM292.85 122.854V133.526L299.386 130.803L299.387 130.803C300.208 130.462 300.575 129.903 300.666 129.439C300.752 128.995 300.626 128.451 300.052 127.973L293.853 122.812L293.852 122.811C293.679 122.669 293.382 122.609 293.087 122.711C292.95 122.758 292.878 122.82 292.853 122.85L292.85 122.854ZM269.522 149.813L269.523 149.811L268.871 149.268C268.354 148.805 268.241 148.287 268.324 147.861C268.415 147.397 268.782 146.838 269.603 146.496L273.724 144.78L276.142 143.773V154.444L276.137 154.45C276.112 154.48 276.039 154.542 275.903 154.589C275.608 154.691 275.311 154.631 275.138 154.489L275.137 154.488L269.522 149.813Z" fill="white"/>
</g>
<rect x="218" y="198" width="134" height="48" rx="4" fill="#F6F7FB"/>
<path d="M239.21 229H242.004V216.436H239.21V229ZM248.161 229H250.954V221.473L256.827 229H258.873V216.436H256.08V224.071L250.118 216.436H248.161V229ZM268.565 229.196C271.59 229.196 273.387 227.754 273.387 225.352C273.387 220.779 267.497 221.864 267.497 219.675C267.497 218.981 268.084 218.608 269.081 218.608C270.042 218.608 270.789 218.981 271.537 219.764L273.352 217.967C272.409 216.917 270.896 216.241 269.134 216.241C266.536 216.241 264.721 217.629 264.721 219.942C264.721 224.355 270.611 223.234 270.611 225.601C270.611 226.348 269.917 226.811 268.743 226.811C267.426 226.811 266.483 226.295 265.682 225.352L263.867 227.149C265.095 228.537 266.501 229.196 268.565 229.196ZM281.513 229H284.307V218.874H288.24V216.436H277.581V218.874H281.513V229ZM291.047 229H293.948L294.785 226.722H299.696L300.532 229H303.486L298.557 216.436H296.03L291.047 229ZM295.621 224.444L297.258 219.96L298.877 224.444H295.621ZM308.553 229H316.917V226.544H311.347V216.436H308.553V229ZM322.265 229H330.629V226.544H325.059V216.436H322.265V229Z" fill="#4D5982"/>
</g>
</g>
<defs>
<filter id="filter0_d_83_430" x="142" y="34" width="285" height="289" filterUnits="userSpaceOnUse" color-interpolation-filters="sRGB">
<feFlood flood-opacity="0" result="BackgroundImageFix"/>
<feColorMatrix in="SourceAlpha" type="matrix" values="0 0 0 0 0 0 0 0 0 0 0 0 0 0 0 0 0 0 127 0" result="hardAlpha"/>
<feOffset dy="11"/>
<feGaussianBlur stdDeviation="16"/>
<feComposite in2="hardAlpha" operator="out"/>
<feColorMatrix type="matrix" values="0 0 0 0 0.0941176 0 0 0 0 0.101961 0 0 0 0 0.105882 0 0 0 0.14 0"/>
<feBlend mode="normal" in2="BackgroundImageFix" result="effect1_dropShadow_83_430"/>
<feBlend mode="normal" in="SourceGraphic" in2="effect1_dropShadow_83_430" result="shape"/>
</filter>
<filter id="filter1_ii_83_430" x="242" y="95" width="85" height="89" filterUnits="userSpaceOnUse" color-interpolation-filters="sRGB">
<feFlood flood-opacity="0" result="BackgroundImageFix"/>
<feBlend mode="normal" in="SourceGraphic" in2="BackgroundImageFix" result="shape"/>
<feColorMatrix in="SourceAlpha" type="matrix" values="0 0 0 0 0 0 0 0 0 0 0 0 0 0 0 0 0 0 127 0" result="hardAlpha"/>
<feOffset dy="2"/>
<feGaussianBlur stdDeviation="2"/>
<feComposite in2="hardAlpha" operator="arithmetic" k2="-1" k3="1"/>
<feColorMatrix type="matrix" values="0 0 0 0 1 0 0 0 0 1 0 0 0 0 1 0 0 0 0.25 0"/>
<feBlend mode="normal" in2="shape" result="effect1_innerShadow_83_430"/>
<feColorMatrix in="SourceAlpha" type="matrix" values="0 0 0 0 0 0 0 0 0 0 0 0 0 0 0 0 0 0 127 0" result="hardAlpha"/>
<feOffset dy="-4"/>
<feGaussianBlur stdDeviation="1"/>
<feComposite in2="hardAlpha" operator="arithmetic" k2="-1" k3="1"/>
<feColorMatrix type="matrix" values="0 0 0 0 0 0 0 0 0 0 0 0 0 0 0 0 0 0 0.1 0"/>
<feBlend mode="multiply" in2="effect1_innerShadow_83_430" result="effect2_innerShadow_83_430"/>
</filter>
<filter id="filter2_d_83_430" x="258.477" y="112.712" width="52.0391" height="59.8796" filterUnits="userSpaceOnUse" color-interpolation-filters="sRGB">
<feFlood flood-opacity="0" result="BackgroundImageFix"/>
<feColorMatrix in="SourceAlpha" type="matrix" values="0 0 0 0 0 0 0 0 0 0 0 0 0 0 0 0 0 0 127 0" result="hardAlpha"/>
<feOffset dy="4"/>
<feGaussianBlur stdDeviation="2"/>
<feComposite in2="hardAlpha" operator="out"/>
<feColorMatrix type="matrix" values="0 0 0 0 0 0 0 0 0 0 0 0 0 0 0 0 0 0 0.15 0"/>
<feBlend mode="normal" in2="BackgroundImageFix" result="effect1_dropShadow_83_430"/>
<feBlend mode="normal" in="SourceGraphic" in2="effect1_dropShadow_83_430" result="shape"/>
</filter>
<linearGradient id="paint0_linear_83_430" x1="746" y1="523.5" x2="746" y2="280" gradientUnits="userSpaceOnUse">
<stop offset="0.517777" stop-color="#F6F7FB"/>
<stop offset="1" stop-color="#F6F7FB" stop-opacity="0"/>
</linearGradient>
<radialGradient id="paint1_radial_83_430" cx="0" cy="0" r="1" gradientUnits="userSpaceOnUse" gradientTransform="translate(327 198) rotate(-124.563) scale(136.611)">
<stop stop-color="#1E2D86"/>
<stop offset="1" stop-color="#4B5CC5"/>
</radialGradient>
<clipPath id="clip0_83_430">
<path d="M0 0H516V248C516 265.673 501.673 280 484 280H32C14.3269 280 0 265.673 0 248V0Z" fill="white"/>
</clipPath>
</defs>
</svg>
